X: 8
T:Doublestop Studies - G Major
C:Mike Stangeland
N:10/31/00
L:1/8
Q:1/4=160
M:4/4
K:G
z2 B2 c2 ^c2 | "G major""Shape A Doublest"[gd][gd] [gd][gd] [gd][gd] [g2d2] | 
[bg][bg] [bg][bg] [bg][bg] [b2g2] | [d'b][d'b] [d'b][d'b] [d'b][d'b] [d'2b2] | 
[g'd'][g'd'] [g'd'][g'd'] [g'd'][g'd'] [g'2d'2] | [BG][BG] [BG][BG] [BG][BG] [B2G2] | 
[dB][dB] [dB][dB] [dB][dB] [d2B2] | [gd][gd] [gd][gd] [gd][gd] [g2d2] | [bg][bg] [bg][bg] [bg][bg] [b2g2] | 
[DB,][DB,] [DB,][DB,] [DB,][DB,] [D2B,2] | [GD][GD] [GD][GD] [GD][GD] [G2D2] | 
[BG][BG] [BG][BG] [BG][BG] [B2G2] | [dB][dB] [dB][dB] [dB][dB] [d2B2] | "G Major - Shapes""Shape B"[gB][gB] [gB][gB] [gB][gB] [g2B2] | 
[bd][bd] [bd][bd] [bd][bd] [b2d2] | "Shape C "[d'g][d'g] [d'g][d'g] [d'g][d'g] [d'2g2] | 
[g'b][g'b] [g'b][g'b] [g'b][g'b] [g'2b2] | [BD][BD] [BD][BD] [BD][BD] [B2D2] | 
[dG][dG] [dG][dG] [dG][dG] [d2G2] | [gB][gB] [gB][gB] [gB][gB] [g2B2] | [bd][bd] [bd][bd] [bd][bd] [b2d2] | 
[DG,][DG,] [DG,][DG,] [DG,][DG,] [D2G,2] | [GB,][GB,] [GB,][GB,] [GB,][GB,] [G2B,2] | 
[BD][BD] [BD][BD] [BD][BD] [B2D2] | [dG][dG] [dG][dG] [dG][dG] [d2G2] | z8 | "C major"z2 G2 A2 B2 | 
[ec][ec] [ec][ec] [ec][ec] [e2c2] | [ge][ge] [ge][ge] [ge][ge] [g2e2] | [c'g][c'g] [c'g][c'g] [c'g][c'g] [c'2g2] | 
[e'c'][e'c'] [e'c'][e'c'] [e'c'][e'c'] [e'2c'2] | [cG][cG] [cG][cG] [cG][cG] [c2G2] | 
[ec][ec] [ec][ec] [ec][ec] [e2c2] | [ge][ge] [ge][ge] [ge][ge] [g2e2] | [c'g][c'g] [c'g][c'g] [c'g][c'g] [c'2g2] | 
[EC][EC] [EC][EC] [EC][EC] [E2C2] | [GE][GE] [GE][GE] [GE][GE] [G2E2] | [cG][cG] [cG][cG] [cG][cG] [c2G2] | 
[ec][ec] [ec][ec] [ec][ec] [e2c2] | [gc][gc] [gc][gc] [gc][gc] [g2c2] | [c'e][c'e] [c'e][c'e] [c'e][c'e] [c'2e2] | 
[e'g][e'g] [e'g][e'g] [e'g][e'g] [e'2g2] | [g'c'][g'c'] [g'c'][g'c'] [g'c'][g'c'] [g'2c'2] | 
[cE][cE] [cE][cE] [cE][cE] [c2E2] | [eG][eG] [eG][eG] [eG][eG] [e2G2] | [gc][gc] [gc][gc] [gc][gc] [g2c2] | 
[c'e][c'e] [c'e][c'e] [c'e][c'e] [c'2e2] | [EG,][EG,] [EG,][EG,] [EG,][EG,] [E2G,2] | 
[GC][GC] [GC][GC] [GC][GC] [G2C2] | [cE][cE] [cE][cE] [cE][cE] [c2E2] | [eG][eG] [eG][eG] [eG][eG] [e2G2] | 
z8 | z2 A2 B2 ^c2 | [fd][fd] [fd][fd] [fd][fd] [f2d2] | [af][af] [af][af] [af][af] [a2f2] | 
[d'a][d'a] [d'a][d'a] [d'a][d'a] [d'2a2] | [f'd'][f'd'] [f'd'][f'd'] [f'd'][f'd'] [f'2d'2] | 
[AF][AF] [AF][AF] [AF][AF] [A2F2] | [dA][dA] [dA][dA] [dA][dA] [d2A2] | [fd][fd] [fd][fd] [fd][fd] [f2d2] | 
[af][af] [af][af] [af][af] [a2f2] | [DA,][DA,] [DA,][DA,] [DA,][DA,] [D2A,2] | 
[FD][FD] [FD][FD] [FD][FD] [F2D2] | [AF][AF] [AF][AF] [AF][AF] [A2F2] | [dA][dA] [dA][dA] [dA][dA] [d2A2] | 
[fA][fA] [fA][fA] [fA][fA] [f2A2] | [ad][ad] [ad][ad] [ad][ad] [a2d2] | [d'f][d'f] [d'f][d'f] [d'f][d'f] [d'2f2] | 
[f'a][f'a] [f'a][f'a] [f'a][f'a] [f'2a2] | [AD][AD] [AD][AD] [AD][AD] [A2D2] | 
[dF][dF] [dF][dF] [dF][dF] [d2F2] | [fA][fA] [fA][fA] [fA][fA] [f2A2] | [ad][ad] [ad][ad] [ad][ad] [a2d2] | 
[FA,][FA,] [FA,][FA,] [FA,][FA,] [F2A,2] | [AD][AD] [AD][AD] [AD][AD] [A2D2] | 
[dF][dF] [dF][dF] [dF][dF] [d2F2] | [fA][fA] [fA][fA] [fA][fA] [f2A2] | z8 | "Now create simpl""G"z2 GG A2 B2 | 
[gd][gd] [gd][gd] [gd][gd] [g2d2] | [bg][bg] [bg][bg] [bg][bg] [b2g2] | "C"[ec][ec] [ec][ec] [ec][ec] [e2c2] | 
[c'g][c'g] [c'g][c'g] [c'g][c'g] [c'2g2] | "D"[af][af] [af][af] [af][af] [a2f2] | 
[fd][fd] [fd][fd] [fd][fd] [f2d2] | "G"[dB][dB] [dB][dB] [dB][dB] [d2B2] | [BG][BG] [BG][BG] [BG][BG] [B2G2] | 
"G"[GB,][GB,] [GB,][GB,] [GB,][GB,] [G2B,2] | [dB][dB] [dB][dB] [dB][dB] [d2B2] | 
"C"[c'g][c'g] [c'g][c'g] [c'g][c'g] [c'2g2] | [ge][ge] [ge][ge] [ge][ge] [g2e2] | 
"D"[ad][ad] [ad][ad] [ad][ad] [a2d2] | [d'f][d'f] [d'f][d'f] [d'f][d'f] [d'2f2] | 
"G"[d'g][d'g] [d'g][d'g] [d'g][d'g] [d'2g2] | [g'b][g'b] [g'b][g'b] [g'b][g'b] [g'2b2] | 
"G"[gd][gd] [gd][gd] [gB][gB] [gB][gB] | [BG][BG] [BG][BG] [GB,][GB,] [GB,][GB,] | 
"C"[EC][EC] [EC][EC] [cG][cG] [cG][cG] | [ec][ec] [ec][ec] [ge][ge] [ge][ge] | 
"D"[fd][fd] [fd][fd] [af][af] [af][afA] | [fA][fA] [fA][fA] [dF][dF] [dF][dF] | 
"G"[dG][dG] [dG][dG] [BD][BD] [BD][BD] | [GB,][GB,] [GB,][GB,] [DG,][DG,] [DG,][DG,] | 
[g'b][g'b] [g'b][g'b] [d'g][d'g] [d'g][d'g] | [gd][gd] [gd][gd] [gB][gB] [gB][gB] | 
"C"[c'g][c'g] [c'g][c'g] [c'e][c'e] [c'e][c'e] | [ge][ge] [ge][ge] [gc][gc] [gc][gc] | 
"D"[dF][dF] [dF][dF] [AD][AD] [AD][AD] | [FD][FD] [FD][FD] [DA,][DA,] [DA,][DA,] | 
"G"[DB,][DB,] [DB,][DB,] [BG][BG] [BG][BG] | [dB][dB] [dB][dB] [g4d4] |

